X:1
T:James Gibb editions
T:O süsser, o freundlicher - Schütz
T:#
%%score 1 2
L:1/8
Q:1/4=90
M:2/2
K:F
V:1 treble-8 nm="Tenor"
V:2 bass nm="Continuo"
V:1
"^O süsser, o freundlicher, SWV 285""^Heinrich Schütz\n(1585-1672)" z4 B4 | B8 | =B8 | z4 c4 | %4
w: O|sü-|sser,|o|
 c6 c2 | ^c8 | z4 d4 | _e3 e d2 c2 | d6 c2 |[M:2/2][K:treble-8] c8 | B8 | z2 A2 c4- | c2 FF F4 | %13
w: freund- li-|cher,|o|gü- ti- ger Herr|Je- su|Chri-|ste,|wie hoch|* hast du uns|
 _A2 AG G2 GF | G2 G2 z2 G2 | B4 GGG^F | A2 A2 z2 A2 | c3 c c=BBA | =B4 B2 z B | =Bc c4 d2 | %20
w: e- len- de Men- schen ge-|lie- bet, wie|theur hast du uns er-|lö- set, wie|lieb- lich hast du uns ge-|trö- stet, wie|herr- lich hast du|
 d6 d2 | c4 z2 AB | cccd d3 e | e8 ||[M:3/2][Q:1/4=180] d8 f4 | c4 c4 z4 | z4 c4 d4 | %27
w: uns ge-|macht, wie ge-|wal- tig hast du uns er-|ha-|ben, mein|Hei- land,|wie er-|
[M:3/2][K:treble-8][Q:1/4=180][Q:1/4=180] _e6 f2 d2 c2 | c8 g4 | d4 d4 z4 | z4 d4 e4 | %31
w: freu- et sich mein|Herz, mein|Hei- land,|wie er-|
 f6 g2 e2 d2 ||[M:2/2][Q:1/4=90] d4 A2 AB |[M:2/2][K:treble-8][Q:1/4=90][Q:1/4=90] c2 d2 G4- | %34
w: freu- et sich mein|Herz, wenn ich da-|ran ge- den\-|
 G4 ^F4 | z4 A2 B2 | c3 d _e2 BB | B2 d2 c4 | c4 z4 | z4 z2 f2 | _e3 d d3 c | c4 z4 | z2 _e2 d3 c | %43
w: * ke,|denn je|mehr, je mehr ich da-|ran ge- den-|ke,|je|freund- li- cher du|bist,|je freund- li-|
 c3 B B4 | z8 | d2 cB c4- | c4 B4 | A8 | !fermata!G8 || z2 A4 G2 | A2 A2 z2 D2 | A3 A A2 A2- | %52
w: eher du bist,||je lie- ber ich|* dich|ha-|be.|Mein Er-|lö- ser, wie|herr- lich sind dei\-|
 A2 GG A4 | A4 BAGF | G3 F F4 | z2 F2 c2 c2- | c2 B2 c3 c | c4 _edcB | c3 B B4 | %59
w: * ne Wohl- tha-|ten, die du uns er-|zei- get hast,|wie gross ist|* die Herr- lich-|keit, die du uns be-|rei- tet hast.|
 z2 (_EF G/F/G/A/ B2) | z2 (Bc d/c/d/e/ f2- | f2) _ed cBAB | c4 c4 | z2 (FG A/G/A/B/ c2) | %64
w: O, * * * * * *|o, * * * * * *|* wie ver- lan- get mei- ner|See- len,|o, * * * * * *|
 z2 (cd _e/d/e/f/ g2- | g2) f_e dcBc | d6 ^c>c | d4 z2 d2 | =B2 BB BBBB | c4 z2 c2 | B4 A2 A2 | %71
w: o, * * * * * *|* wie ver- lan- get mei- ne|See- le nach|dir, wie|seh- ne ich mich mit al- ler|Macht aus|die- sem E-|
 (A4 G4) | A4 e2 e2 | f3 e d2 d2 | _e3 d c2 c2 | d3 c B4 | A4 A4 | !fermata!G8 | z4 z2 d2 | %79
w: len\- *|de nach dem|himm- li- schen, dem|himm- li- schen, dem|himm- li- schen|Va- ter-|land.|Mein|
 ^c2 c2 z2 e2 | ^c2 cc d3 e | ^c2 c2 z2 d2 | d2 =c2 =B4 | =B4 z2 cc | c2 c2 c3 c | c2 d4 c2 | B8 | %87
w: Hel- fer, du|hast mir mein Herz ge-|nom- men mit|dei- ner Lie-|be, dass ich|mich ohn Un- ter-|lass nach dir|seh-|
 A8 | B4 z BAG | c2 AG F2 F2 | d4 z dcB | _e2 cB A2 A2 | c2 d_e f2 ee | d3 c c4 | B4 F4 | %95
w: ne,|ach, ach, dass ich|bald zu dir kom- men.|ach, ach, dass ich|bald zu dir kom- men|und dei- ne Herr- lich- keit|schau- en soll-|te, ach,|
 z FED G2 ED | C2 C2 G4 | z GFE A2 FE | D2 D2 F2 GA | B2 AA G2 F2 | G4 F4 | c4 z cBA | %102
w: ach, dass ich bald zu dir|kom- men, ach,|ach, dass ich bald zu dir|kom- men und dei- ne|Herr- lich- keit schau- en|soll- te,|ach, ach, dass ich|
 d2 BA G2 G2 | B2 cd _e2 dd | (cBBA[Q:1/4=89] B[Q:1/4=88]A[Q:1/4=86]A[Q:1/4=85]G | %105
w: bald zu dir kom- men|und dei- ne Herr- lich- keit|schau\- * * * * * * *|
[Q:1/4=84] A[Q:1/4=83]B)[Q:1/4=82] (c[Q:1/4=80]B)[Q:1/4=78] A4 |[Q:1/4=76] G16 |] %107
w: * * en * soll-|te.|
V:2
 B,8 | _E,8 | G,8 | z4 C4 | F,8 | A,8 | z4 D4 | G,4 A,4 | B,4 _E,4 |[M:2/2] F,8 | B,,8 | F,,8 | %12
w: |||||||||4~~~3|||
 F,,4 F,,4 | F,,4 F,,4 | C,4 G,,4- | G,,4 G,,4 | D,4 A,,4- | A,,4 A,,4 | E,8 | E,4 F,4 | %20
w: |||||||5~~~~~~~~~~~~6 5~~~~6|
 G,2 F,2 G,4 | C,4 F,4- | F,4 G,4 | A,8 ||[M:3/2] D,8 B,,4 | F,8 z4 | F,8 D,4 |[M:3/2] C,8 G,4 | %28
w: ||5~~~~~~~~~~~~6 5~~~6||||||
 C,8 C,4 | G,8 z4 | G,8 E,4 | D,8 A,4 ||[M:2/2] D,4 D,2 D,G, |[M:2/2] F,2 D,2 _E,4 | D,8 | %35
w: |||||||
 z4 D,2 G,2 | F,3 B, _E,4 | _E,2 D,2 F,4 | F,4 F,_E,D,C, | B,,2 C,2 F,2 D,2 | C,2 _E,2 F,2 G,2 | %41
w: ||* 6 *||||
 CB,A,G, F,2 G,2 | C,2 _E,2 B,,2 D,2 | _E,2 F,2 B,A,G,F, | _E,2 F,2 B,,4 | G,,4 A,,4 | %46
w: |||||
 B,,4- B,,2 C,2 | D,8 | !fermata!G,,8 || D,4 G,,4 | D,8 | D,4 D,4 | _E,4 D,4- | D,4 B,,2 D,2 | %54
w: 5 6 *|4||||||* 6 *|
 C,4 F,,4- | F,,4 F,4 | G,4 F,4 | F,4 _E,2 G,2 | F,4 B,,4 | _E,8 | B,,8 | B,,4 F,4- | F,4 F,4 | %63
w: |||||||||
 F,8 | C,8 | C,4 G,4 | B,4 A,4 | D,8 | G,,8 | C,4 F,,4 | G,,4 A,,4 | B,,8 | A,,8 | A,2 A,2 B,3 A, | %74
w: |||||||||||
 G,4 A,3 G, | ^F,4 G,4 | C,4 D,4 | !fermata!G,,8 | G,,8 | A,,8 | A,,4 D,,4 | A,,4 D,4- | D,4 E,4- | %83
w: |||||||||
 E,4 C,4- | C,4 F,4- | F,2 B,,2 ^F,,4 | G,,8 | D,8 | G,,8 | F,,8 | B,,8 | C,4 F,4 | %92
w: |||||||||
 F,2 _E,2 D,2 C,2 | B,,2 _E,2 F,4 | B,,4 B,,4- | B,,4 =B,,4 | C,4 C,4- | C,4 ^C,4 | %98
w: ||||||
 D,2 C,2 B,,2 A,,2 | G,,2 F,,2 C,2 D,2 | C,4 F,,4 | F,,8 | ^F,4 G,2 =F,2 | _E,2 D,2 C,2 B,,2 | %104
w: ||||||
 A,,4 G,,4 | D,2 C,2 D,4 | G,,16 |] %107
w: |* * 4||

